!!!!SEGMENT: pl-kk--kk-i-1--045_anonim--prosa-haec-domus-aulae-caelestis.krn
!!!cenid: 15xx:758
!!!COM: Anonim
!!!COM-rismID:
!!!CDT:
!!!CNT:
!!!OTL: Prosa/Haec domus aulae caelestis
!!!PDT:
!!!AGN:
!!!SMS-siglum: PL-Kk
!!!SMS-shelfmark: Kk.I.1
!!!SMS-shelfwork: 045 W
!!!SMS-variant:
!!!SMS-altvar:
!!!NIFC-rismSourceID: 300257999
!!!NIFC-islandoraID: pl-kk:1
!!!URL-pdf-islandora: https://repozytorium.nifc.pl/islandora/object/pl-kk%3A1/datastream/PDF/view
!!!URL-scan: https://polish.musicsources.pl/pl/lokalizacje/galeria/rekopisy/5736 @EN{Scan on Polish Music Herritage in Open Access Website} @PL{Skany w portalu Dziedzictwo Muzyki Polskiej w otwartym dostępie}
!!!ONB-nifc: UWAGA: Cantus (s. 142r-v, skan 0144-0145), Altus (s. 137r-138r, skan 0330-0331), Tenor (s. 116v-117r, skan 0507), Bassus (s. 129v-130r, skan 0692).
!!!AIN: 1 alto 1 bass 1 soprn 1 tenor
!!!key: G:mix
**kern	**text	**kern	**text	**text	**kern	**text	**kern	**text
*part4	*part4	*part3	*part3	*part3	*part2	*part2	*part1	*part1
*staff4	*staff4	*staff3	*staff3	*staff3	*staff2	*staff2	*staff1	*staff1
*I"BASSVS	*	*I"TENOR	*	*	*I"ALTVS	*	*I"CANTVS	*
*I'B	*	*I'T	*	*	*I'A	*	*I'C	*
*ICvox	*	*ICvox	*	*	*ICvox	*	*ICvox	*
*Ibass	*	*Itenor	*	*	*Ialto	*	*Isoprn	*
*clefF4	*	*clefC4	*	*	*clefC4	*	*clefC3	*
*G:mix	*	*G:mix	*	*	*G:mix	*	*G:mix	*
*k[]	*	*k[]	*	*	*k[]	*	*k[]	*
*M2/1	*	*M2/1	*	*	*M2/1	*	*M2/1	*
*met(c|)	*	*met(c|)	*	*	*met(c|)	*	*met(c|)	*
=1	=1	=1	=1	=1	=1	=1	=1	=1
!	!	!	!	!	!LO:TX:t=P:problem= w źródle altus zapisany w kluczu tenorowym	!	!	!
!	!	!	!	!	!	!	!LO:TX:t=P:problem= w źródle cantus zapisany w kluczu altowym	!
!	!	!	!	!	!LO:TX:a:i:t=Prosa.	!	!	!
1r	.	1D	H(ae)c	.	1.A	H(ae)c	2d\	H(ae)c
.	.	.	.	.	.	.	2.f\	do-
1D	H(ae)c	1F	do-	.	.	.	.	.
.	.	.	.	.	.	.	4e\	.
.	.	.	.	.	2A/	do-	1d	-mus
=2	=2	=2	=2	=2	=2	=2	=2	=2
1AA	do-	1E	-mus	.	1A	-mus	.	.
.	.	.	.	.	.	.	2c/	au-
1D	-mus	1F	au-	.	1A	au-	2d\	-l(ae)
.	.	.	.	.	.	.	1d	c(ae)-
=3	=3	=3	=3	=3	=3	=3	=3	=3
2GG/	au-	1D	-l(ae)	.	2B\	-l(ae)	.	.
2BB/	-l(ae)	.	.	.	2.d\	c(ae)-	2G/	-leſ-
1AA	c(ae)-	1E	c(ae)-	.	.	.	2A/	-tis
.	.	.	.	.	4c\	.	.	.
*	*	*	*	*	*	*	*	*ij
.	.	.	.	.	1c	-leſ-	2A/	c(ae)-
=4	=4	=4	=4	=4	=4	=4	=4	=4
1D	-leſ-	1F	-leſ-	.	.	.	1f	-leſ-
.	.	.	.	.	2B\	.	.	.
1C	-tis	1G	-tis	.	1c	-tis	0e	-tis
*	*	*	*	*	*	*	*	*Xij
=5	=5	=5	=5	=5	=5	=5	=5	=5
1C	pro-	1E	pro-	.	1G	pro-	.	.
2C/	-ba-	1G	-ba-	.	2G/	-ba-	1e	pro-
2C/	-tur.	.	.	.	2E/	.	.	.
=6	=6	=6	=6	=6	=6	=6	=6	=6
4FF/	.	1F	-tur	.	1A	-t(ur)	2f\	-ba-
4GG/	.	.	.	.	.	.	.	.
4AA/	.	.	.	.	.	.	1c	-tur
*custos:C	*	*	*	*	*	*	*	*
4BB/	.	.	.	.	.	.	.	.
!LO:LB:g=original	!	!	!	!	!	!	!	!
2.C/	par-	2.E/	par-	.	1G	.	.	.
.	.	.	.	.	.	.	2.e\	par-
*	*	*custos:C	*	*	*	*	*	*
4GG/	.	4D/	.	.	.	.	.	.
!	!	!LO:LB:g=original	!	!	!	!	!	!
=7	=7	=7	=7	=7	=7	=7	=7	=7
2AA/	.	2C/	.	.	4E/	par-	.	.
.	.	.	.	.	2A/	.	4d\	.
2BB-X/	.	2D/	.	.	.	.	1d	-ti-
.	.	.	.	.	4G/	-ti-	.	.
1AA	-ti-	1E	-ti-	.	1A	-ceps.	.	.
.	.	.	.	.	.	.	2c/	-ceps.
=8	=8	=8	=8	=8	=8	=8	=8	=8
*	*	*	*	*	*custos:F#	*	*custos:A	*
0D;<	-ceps.	0D;	-ceps.	.	0A;	.	0d;<	.
!	!	!	!	!	!LO:LB:g=original	!	!LO:LB:g=original	!
=9	=9	=9	=9	=9	=9	=9	=9	=9
!	!	!	!	!	!LO:TX:t=P:problem=# below	!	!	!
1D	Et	1D	Et	.	1F#X	Et	1A	Et
2GG/	lu-	1D	lu-	.	4G/	lu-	4B/	lu-
.	.	.	.	.	4F#/	.	4c/	.
2BB/	-mi-	.	.	.	4E/	.	1d	.
.	.	.	.	.	4D/	.	.	.
=10	=10	=10	=10	=10	=10	=10	=10	=10
1AA	-ne	1A	-mi-	.	1E	-mi-	.	.
.	.	.	.	.	.	.	2c/	-mi-
2r	.	1A	-ne	.	2D/	-ne	2d\	-ne
2D/	con-	.	.	.	2.d\	con-	2f\	con-
=11	=11	=11	=11	=11	=11	=11	=11	=11
1G	-ti-	1B	con-	.	.	.	1d	-ti-
.	.	.	.	.	4c\	.	.	.
.	.	.	.	.	2B\	.	.	.
*lig	*	*	*	*	*	*	*lig	*
1C	-nu-	1c	-ti-	.	4A/	.	1e	-nu-
.	.	.	.	.	4G/	.	.	.
.	.	.	.	.	1G	-ti-	.	.
=12	=12	=12	=12	=12	=12	=12	=12	=12
*custos:E	*	*	*	*	*	*	*	*
1D	.	1A	-nu-	.	.	.	1d	.
.	.	.	.	.	2F#X/	-nu-	.	.
!LO:LB:g=original	!	!	!	!	!LO:TX:t=P:problem=# below	!	!	!
*Xlig	*	*	*	*	*	*	*Xlig	*
2E\	-o	1G	-o	.	2G/	-o	2B/	-o
1C	e-	.	.	.	1c	e-	1e	e-
=13	=13	=13	=13	=13	=13	=13	=13	=13
.	.	1G	e-	.	.	.	.	.
2C/	-mu-	.	.	.	2c\	-mu-	2e\	-mu-
*	*	*lig	*	*	*	*	*	*
2D/	-lans	1F	-mu-	.	2A/	-lans	1d	-lans
2BB-X/	ci-	.	.	.	2B-X\	ci-	.	.
=14	=14	=14	=14	=14	=14	=14	=14	=14
1C	-ui-	1E	.	.	4A/	-ui-	2e\	ci-
.	.	.	.	.	4G/	.	.	.
.	.	.	.	.	1c	-ta-	2c/	-ui-
*	*	*Xlig	*	*	*	*	*	*
*	*	*custos:E	*	*	*	*	*	*
1GG	-ta-	1D	-lans.	.	.	.	1d	-ta-
.	.	.	.	.	2B\	-tem.	.	.
!	!	!LO:LB:g=original	!	!	!	!	!	!
=15	=15	=15	=15	=15	=15	=15	=15	=15
2C/	-tem	1E	ci-	.	2c\	.	2G/	-tem
*	*ij	*	*	*	*	*ij	*	*ij
2C/	ci-	.	.	.	2G/	ci-	2e\	ci-
1FF	-ui-	1F	-ui-	.	1A	-ui-	4d/	-ui-
.	.	.	.	.	.	.	4c/	.
.	.	.	.	.	.	.	1c	-ta-
=16	=16	=16	=16	=16	=16	=16	=16	=16
*	*	*	*	*	*custos:E	*	*	*
1GG	-ta-	1D	-ta-	.	1G	-ta-	.	.
.	.	.	.	.	.	.	2B/	.
!	!	!	!	!	!LO:LB:g=original	!	!	!
2C/	-tem	1C	-tem	.	2E/	-tem	1c	-tem
*	*Xij	*	*	*	*	*Xij	*	*
2.AA/	ſi-	.	.	.	2A/	ſi-	.	.
*	*	*	*	*	*	*	*	*Xij
=17	=17	=17	=17	=17	=17	=17	=17	=17
.	.	1E	ſi-	.	1c	-ne	2r	.
4BB/	.	.	.	.	.	.	.	.
*	*	*	*	*	*	*	*custos:e	*
4C/	.	.	.	.	.	.	2e\	ſi-
4D/	.	.	.	.	.	.	.	.
!	!	!	!	!	!	!	!LO:LB:g=original	!
2E\	.	1G	-ne	.	2B\	te-	2e\	-ne
2C/	-ne	.	.	.	2c\	-ne-	2.e\	te-
=18	=18	=18	=18	=18	=18	=18	=18	=18
1D	te-	1F	te-	.	0A	-bris	.	.
.	.	.	.	.	.	.	4d\	.
.	.	.	.	.	.	.	1d	-ne-
*custos:D	*	*	*	*	*	*	*	*
*	*	*lig	*	*	*	*ij	*	*
1AA	-ne-	1E	-ne-	.	.	.	.	.
.	.	.	.	.	.	.	2c/	.
!LO:LB:g=original	!	!	!	!	!	!	!	!
=19	=19	=19	=19	=19	=19	=19	=19	=19
!	!	!	!	!	!	!	!LO:N:vis=0	!
1D	-bris	1F	.	.	1A	ſi-	00.d;<	-briſ
*	*ij	*Xlig	*	*	*	*	*	*
!	!	!LO:N:vis=0	!	!	!	!	!	!
1GG	ſi-	[1D;l	-bris	.	2.B\	-ne	.	.
.	.	.	.	.	4A/	.	.	.
=20	=20	=20	=20	=20	=20	=20	=20	=20
2BB/	-ne	0D_	.	.	4F/	te-	.	.
.	.	.	.	.	4G/	.	.	.
2FF/	te-	.	.	.	1A	-ne-	.	.
1GG	-ne-	.	.	.	.	.	.	.
.	.	.	.	.	2G/	.	.	.
=21	=21	=21	=21	=21	=21	=21	=21	=21
0D;<	-bris	0D]	.	.	0A;<	-bris	.	.
*	*Xij	*	*	*	*	*Xij	*	*
=22	=22	=22	=22	=22	=22	=22	=22	=22
1D	Qua(m)	1D	Qua(m)	.	1A	Qua(m)	1d	Qua(m)
1BB-X	dex-	1F	dex-	.	1B-X	dex-	1.d	dex-
=23	=23	=23	=23	=23	=23	=23	=23	=23
2BB/	.	1F	-te-	.	2B\	.	.	.
2BB-/	-te-	.	.	.	2B-\	-te-	2d\	  te-
1BB-X	-ra	1F	-ra	.	1B-X	-ra	1d	-ra
=24	=24	=24	=24	=24	=24	=24	=24	=24
4FF/	pro-	1F	pro-	.	1A	pro-	1c	pro-
4GG/	.	.	.	.	.	.	.	.
4AA/	.	.	.	.	.	.	.	.
4BB-X/	.	.	.	.	.	.	.	.
1.C	-te-	2.E/	-te-	.	2.G/	.	2.c/	-te-
*	*	*custos:C	*	*	*custos:E	*	*	*
.	.	4D/	.	.	4F/	-te-	4B/	.
!	!	!LO:LB:g=original	!	!	!LO:LB:g=original	!	!	!
=25	=25	=25	=25	=25	=25	=25	=25	=25
.	.	2C/	.	.	2E/	.	2A/	-gat
2BB-X/	-gat	1D	-gat	.	2D/	-gat	2G/	.
1AA	De-	.	.	.	1E	De-	1A	De-
.	.	2C/	De-	.	.	.	.	.
=26	=26	=26	=26	=26	=26	=26	=26	=26
*custos:AA	*	*	*	*	*	*	*custos:e	*
0D;<	-i.	0D;	  i	.	0F#X;	-i	0A;<	-i
!LO:LB:g=original	!	!	!	!	!	!	!LO:LB:g=original	!
=27	=27	=27	=27	=27	=27	=27	=27	=27
1AA	Hic	1A	hic	.	1c	Hic	1e	Hic
2.E\	no-	1G	no-	.	1B	no-	2e\	no-
.	.	.	.	.	.	.	2e\	-ua(m)
4D/	.	.	.	.	.	.	.	.
=28	=28	=28	=28	=28	=28	=28	=28	=28
2C/	-ua(m)	1A	-uam	.	2c\	-uam	2e\	pro-
2D/	pro-	.	.	.	1A	.	2d\	-lem
1BB	.	1d	pro-	.	.	.	2r	.
*	*	*	*	*	*	*	*	*ij
.	.	.	.	.	2G/	pro-	2d\	hic
=29	=29	=29	=29	=29	=29	=29	=29	=29
2AA/	-lem.	1A	-le(m)	.	2A/	-lem	2c/	no-
2D/	gra-	.	.	.	2F/	gra-	2d\	-ua(m)
4C/	.	1c	gra-	.	4E/	-ti-	1e	pro-
4D/	-ti-	.	.	.	4F/	.	.	.
4E\	.	.	.	.	4G/	.	.	.
4F\	.	.	.	.	4A/	.	.	.
=30	=30	=30	=30	=30	=30	=30	=30	=30
1G	-a	1B	-ti-	.	4B\	.	2d\	-lem
.	.	.	.	.	4c\	.	.	.
*	*	*	*	*	*	*	*	*Xij
.	.	.	.	.	2d\	-a	2.g\	gra-
1.C	par-	1G	-a	.	4e\	par-	.	.
.	.	.	.	.	4d\	.	4f\	.
.	.	.	.	.	4c\	.	4e\	.
*	*	*	*	*	*custos:c	*	*	*
.	.	.	.	.	4B\	.	4d\	.
!	!	!	!	!	!LO:LB:g=original	!	!	!
=31	=31	=31	=31	=31	=31	=31	=31	=31
.	.	1G	par-	.	2.c\	.	1e	-ti-
2C/	-tu-	.	.	.	.	.	.	.
.	.	.	.	.	4B\	.	.	.
*	*	*lig	*	*	*	*	*	*
1D	-rit	1F	-tu-	.	4A/	.	2f\	-a
.	.	.	.	.	4G/	.	.	.
.	.	.	.	.	2A/	-tu-	1d	par-
=32	=32	=32	=32	=32	=32	=32	=32	=32
1AA	fe-	1E	.	.	1A	-rit	.	.
.	.	.	.	.	.	.	2c/	.
*	*	*Xlig	*	*	*	*	*	*
1BB-X	-cun-	1D	-rit	.	2F/	fe-	1d	-tu-
.	.	.	.	.	1G	-cun-	.	.
=33	=33	=33	=33	=33	=33	=33	=33	=33
*	*	*custos:F	*	*	*	*	*	*
2GG/	-da	1E	fe-	.	.	.	2B/	-rit
2AA/	ſp(i-	.	.	.	2E/	-da	2c/	.
!	!	!LO:LB:g=original	!	!	!	!	!	!
2AA/	-ri-	1F	-cun-	.	2.A/	Spi-	2c/	fe-
2FF/	-t)u	.	.	.	.	.	1A	-cun-
.	.	.	.	.	4G/	.	.	.
=34	=34	=34	=34	=34	=34	=34	=34	=34
*custos:AA	*	*	*	*	*	*	*	*
1BB-X	ſan-	1D	-da	.	4F/	.	.	.
.	.	.	.	.	4E/	.	.	.
*	*	*	*	*	*	*	*custos:A	*
.	.	.	.	.	1D	.	2G/	-da
!LO:LB:g=original	!	!	!	!	!	!	!LO:LB:g=original	!
1AA	-cto	1E	ſpi-	.	.	.	2A/	.
.	.	.	.	.	2C/	-ri-	2E/	ſpi-
=35	=35	=35	=35	=35	=35	=35	=35	=35
1r	.	1D	-ri-	.	4D/	-tu	4F/	-ri-
.	.	.	.	.	4E/	.	4G/	.
.	.	.	.	.	4F/	.	4A/	.
.	.	.	.	.	4G/	.	4B/	.
*	*ij	*	*	*	*	*	*	*
1AA	ſp(i-	1C	-tu	.	2A/	.	2c/	.
.	.	.	.	.	2F/	.	2c/	-tu
=36	=36	=36	=36	=36	=36	=36	=36	=36
2GG/	-ri-	1D	ſanc-	.	2G/	.	2B-X/	ſan-
2FF/	-t)u	.	.	.	2A/	.	2A/	.
!	!	!LO:N:vis=0	!	!	!	!	!	!
1GG	ſan-	0.D;	-to	.	1B	Sanc-	1G	-cto
=37	=37	=37	=37	=37	=37	=37	=37	=37
*	*	*	*	*	*custos:B	*	*	*
0D;<	-cto	.	.	.	0A;<	-to	0F;	.
*	*Xij	*	*	*	*	*	*	*
!	!	!	!	!	!LO:LB:g=original	!	!	!
=38	=38	=38	=38	=38	=38	=38	=38	=38
1GG	Fu-	1G	Fu-	.	1B	Fu-	1.d	Fu-
*	*	*lig	*	*	*	*	*	*
1D	-gi-	1F	-gi-	.	2.A/	-gi-	.	.
.	.	.	.	.	.	.	2d\	-gi-
.	.	.	.	.	4B\	.	.	.
=39	=39	=39	=39	=39	=39	=39	=39	=39
1AA	-unt	1E	.	.	2c\	-unt	2e\	-unt
.	.	.	.	.	2c\	v-	2e\	v-
*	*	*Xlig	*	*	*	*	*	*
2r	.	1D	-unt	.	2.d\	-ni-	1f	-ni-
1D	V-	.	.	.	.	.	.	.
.	.	.	.	.	4c\	.	.	.
=40	=40	=40	=40	=40	=40	=40	=40	=40
*	*	*	*	*	*	*	*lig	*
.	.	1E	V-	.	2B\	.	1e	-uer-
2C/	-ni-	.	.	.	4c\	-uer-	.	.
.	.	.	.	.	4B\	.	.	.
1D	-uer-	1F	-ni-	.	4A/	.	1d	.
.	.	.	.	.	4G/	.	.	.
.	.	.	.	.	2A/	.	.	.
*	*	*	*	*	*	*	*Xlig	*
=41	=41	=41	=41	=41	=41	=41	=41	=41
2GG/	-ſa.	1G	-uer-	.	2B\	-ſa	2d\	-ſa
*	*	*	*	*	*	*	*custos:f	*
2G\	cor-	.	.	.	2B\	cor-	2e\	cor-
!	!	!	!	!	!	!	!LO:LB:g=original	!
1F	-p(o-	1A	-ſa	.	1c	-po-	1f	-po-
=42	=42	=42	=42	=42	=42	=42	=42	=42
*	*	*custos:B	*	*	*	*	*	*
2F\	-r)is	1c	cor-	.	2A/	-ris	2f\	-ris
*custos:G	*	*	*	*	*	*	*	*
2C/	no-	.	.	.	2.G/	no-	2e\	no-
!LO:LB:g=original	!	!LO:LB:g=original	!	!	!	!	!	!
1G	-cu-	1B	-po-	.	.	.	1d	-cu-
.	.	.	.	.	4A\	.	.	.
.	.	.	.	.	4B\	.	.	.
.	.	.	.	.	4c\	.	.	.
=43	=43	=43	=43	=43	=43	=43	=43	=43
1.D	-a.	2.A/	-ris	.	2d\	.	2d\	-a
*	*ij	*	*	*	*	*	*	*ij
.	.	.	.	.	1A	.	1f	no-
.	.	4G/	.	.	.	.	.	.
.	.	2F/	.	.	.	.	.	.
2C/	no-	1G	no-	.	2c\	.	2e\	.
=44	=44	=44	=44	=44	=44	=44	=44	=44
1D	-cu-	.	.	.	1A	-cu-	1d	-cu-
.	.	2F/	-cu-	.	.	.	.	.
*	*	*	*	*	*custos:A	*	*	*
!	!	!	!	!	!LO:N:acc=#	!	!	!
!	!	!	!	!	!LO:TX:t=P:problem=# above	!	!	!
!	!	!LO:N:vis=0	!	!	!LO:N:vis=0	!	!LO:N:vis=0	!
1GG;	-a	1G;	-a.	.	1B;<	-a	1d;<	-a
*	*Xij	*	*	*	*	*	*	*Xij
!	!	!	!	!	!LO:LB:g=original	!	!	!
=45	=45	=45	=45	=45	=45	=45	=45	=45
1D	Hic	1d	Hic	Hic	1A	hic	1f	Hic
2E\	vox	1G	vox	pax	2G/	vox	2e\	vox
2G\	le-	.	.	.	2B\	le-	2d\	le-
=46	=46	=46	=46	=46	=46	=46	=46	=46
2F\	-ti-	1A	l(ae)-	e(t)	2c\	-ti-	2f\	-ti-
4F\	-ci-	.	.	.	4c\	-ci-	4f\	-ci-
*	*	*	*	*	*	*	*custos:f	*
4F\	-(ae)	.	.	.	4c\	-(ae)	4f\	-(ae)
!	!	!	!	!	!	!	!LO:LB:g=original	!
2F\	p(er)-	1c	-ti-	gau-	2A/	per-	2f\	per-
2F\	-ſo-	.	.	.	2A/	-ſo-	2f\	-ſo-
=47	=47	=47	=47	=47	=47	=47	=47	=47
*	*	*custos:A	*	*	*	*	*	*
2G\	-net	1B	-ci-	-di-	1G	-net	2d\	-net
2r	.	.	.	.	.	.	2r	.
*	*ij	*	*	*	*	*ij	*	*
!	!	!LO:LB:g=original	!	!	!	!	!	!
2D/	le-	2.A/	-e	-um	2F/	le-	2d\	le-
4D/	-ti-	.	.	.	4F/	-ti-	4d\	-ti-
4GG/	-ci-	4G/	.	.	4B\	-ci-	4d\	-ci-
=48	=48	=48	=48	=48	=48	=48	=48	=48
2D/	-(ae)	2F/	.	.	2A/	-(ae)	4f\	-(ae)
.	.	.	.	.	.	.	2d\	per-
2E\	p(er)-	1G	per-	re-	2G/	per-	.	.
.	.	.	.	.	.	.	4c/	-ſo-
!	!	!	!	!	!	!	!LO:N:vis=0	!
1D	-ſo-	.	.	.	1A	-ſo-	0.d;<	-net
.	.	2F/	-ſo-	-dun-	.	.	.	.
=49	=49	=49	=49	=49	=49	=49	=49	=49
0GG;	-net	0G;	-net	-dat.	0B;<	-net	.	.
==	==	==	==	==	==	==	==	==
*-	*-	*-	*-	*-	*-	*-	*-	*-
!!!system-decoration: [(s1,s2,s3,s4)]
!!!RDF**kern: > = above
!!!RDF**kern: < = below
!!!RDF**kern: l = terminal long
!!!ENC: Mateusz Solarz
!!!END: 2022-03-08
!!!ENC: Natalia Wrzos
!!!END: 2022-03-14
